frontend/src/assets/icons/image-check.svg

<svg width="24" height="24" viewBox="0 0 24 24" fill="none" xmlns="http://www.w3.org/2000/svg">
<g id="image-check">
<path id="Icon" d="M16 5L18 7L22 3M12.5 3H7.8C6.11984 3 5.27976 3 4.63803 3.32698C4.07354 3.6146 3.6146 4.07354 3.32698 4.63803C3 5.27976 3 6.11984 3 7.8V16.2C3 17.8802 3 18.7202 3.32698 19.362C3.6146 19.9265 4.07354 20.3854 4.63803 20.673C5.27976 21 6.11984 21 7.8 21H17C17.93 21 18.395 21 18.7765 20.8978C19.8117 20.6204 20.6204 19.8117 20.8978 18.7765C21 18.395 21 17.93 21 17M10.5 8.5C10.5 9.60457 9.60457 10.5 8.5 10.5C7.39543 10.5 6.5 9.60457 6.5 8.5C6.5 7.39543 7.39543 6.5 8.5 6.5C9.60457 6.5 10.5 7.39543 10.5 8.5ZM14.99 11.9181L6.53115 19.608C6.05536 20.0406 5.81747 20.2568 5.79643 20.4442C5.77819 20.6066 5.84045 20.7676 5.96319 20.8755C6.10478 21 6.42628 21 7.06929 21H16.456C17.8951 21 18.6147 21 19.1799 20.7582C19.8894 20.4547 20.4547 19.8894 20.7582 19.1799C21 18.6147 21 17.8951 21 16.456C21 15.9717 21 15.7296 20.9471 15.5042C20.8805 15.2208 20.753 14.9554 20.5733 14.7264C20.4303 14.5442 20.2412 14.3929 19.8631 14.0905L17.0658 11.8527C16.6874 11.5499 16.4982 11.3985 16.2898 11.3451C16.1061 11.298 15.9129 11.3041 15.7325 11.3627C15.5279 11.4291 15.3486 11.5921 14.99 11.9181Z" stroke="black" stroke-width="2" stroke-linecap="round" stroke-linejoin="round"/>
</g>
</svg>

<svg xmlns="http://www.w3.org/2000/svg" width="24" height="24" fill="none" viewBox="0 0 24 24">
  <path stroke="#000" stroke-linecap="round" stroke-linejoin="round" stroke-width="2" d="m16 5 2 2 4-4m-9.5 0H7.8c-1.68 0-2.52 0-3.162.327a3 3 0 0 0-1.311 1.311C3 5.28 3 6.12 3 7.8v8.4c0 1.68 0 2.52.327 3.162a3 3 0 0 0 1.311 1.311C5.28 21 6.12 21 7.8 21H17c.93 0 1.395 0 1.776-.102a3 3 0 0 0 2.122-2.122C21 18.395 21 17.93 21 17M10.5 8.5a2 2 0 1 1-4 0 2 2 0 0 1 4 0Zm4.49 3.418-8.459 7.69c-.476.433-.714.649-.735.836a.5.5 0 0 0 .167.431C6.105 21 6.426 21 7.07 21h9.387c1.44 0 2.159 0 2.724-.242a3 3 0 0 0 1.578-1.578c.242-.565.242-1.285.242-2.724 0-.484 0-.726-.053-.952a2.001 2.001 0 0 0-.374-.778c-.143-.182-.332-.333-.71-.636l-2.797-2.237c-.379-.303-.568-.454-.776-.508a1 1 0 0 0-.557.018c-.205.066-.384.23-.743.555Z"/>
</svg>
